X:1
T:Tokat, 10.10 D
T:Tokat, 10.10 D
T:H. H. Snow, 1902
T:Public Domain Courtesy of the Cyber Hymnal™
C:H. H. Snow, 1902
Z:Public Domain
Z:Courtesy of the Cyber Hymnal™
%%score ( 1 2 ) ( 3 4 )
L:1/8
Q:1/4=120
M:2/2
K:Eb
V:1 treble 
V:2 treble 
V:3 bass 
V:4 bass 
V:1
 [EG]4 [B,E]2 [EF]2 | [EG]4 [EG]4 | [EA]2 [EA]2 [EA]2 [EA]2 | [EG]8 | [GB]4 [Ac]2 [GB]2 | %5
 [GB]4 [EG]4 | [EG]2 [EG]2 [DF]2 E2 | [DF]8 | [EG]4 [EG]2 [FA]2 | [GB]4 [GB]4 | %10
 [Ac]2 [Ac]2 [Ac]2 [Ac]2 | [GB]8 | [Ac]4 [Ad]2 [Ge]2 | [FB]4 [EG]4 | [EB]2 [FA]2 [EG]2 [DF]2 | %15
 [B,E]6 z2 |] %16
V:2
 x8 | x8 | x8 | x8 | x8 | x8 | x6 E2 | x8 | x8 | x8 | x8 | x8 | x8 | x8 | x8 | x8 |] %16
V:3
 [E,B,]4 [E,G,]2 [E,A,]2 | [E,B,]4 (E2 _D2) | [A,,C]2 [A,,C]2 [A,,C]2 [A,,_C]2 | [E,B,]8 | %4
 [E,E]4 [E,E]2 [E,E]2 | [E,E]4 [E,B,]4 | [E,B,]2 [E,B,]2 [B,,A,]2 [C,G,]2 | [B,,B,]8 | %8
 [E,B,]4 [E,B,]2 [E,B,]2 | [E,E]4 [E,E]4 | [A,E]2 [A,E]2 [A,,E]2 [C,E]2 | [E,E]8 | %12
 [A,E]4 [F,B,]2 [E,B,]2 | [D,B,]4 [E,B,]4 | [G,,B,]2 [A,,C]2 [B,,B,]2 [B,,A,]2 | [E,G,]6 z2 |] %16
V:4
 x8 | x4 E,4 | x8 | x8 | x8 | x8 | x8 | x8 | x8 | x8 | x8 | x8 | x8 | x8 | x8 | x8 |] %16

